imgs/SingaporeFlag.svg

<svg width="24" height="18" viewBox="0 0 24 18" fill="none" xmlns="http://www.w3.org/2000/svg">
<path d="M0.5 0.5H23.5V17.5H0.5V0.5Z" fill="white" stroke="#F5F2E9"/>
<path fill-rule="evenodd" clip-rule="evenodd" d="M1 1H23V10H1V1Z" fill="#DF0000"/>
<path fill-rule="evenodd" clip-rule="evenodd" d="M6.34158 1.50755C5.63126 1.66021 4.99508 2.05259 4.53986 2.61884C4.08464 3.18508 3.83809 3.8907 3.84161 4.61723C3.84513 5.34376 4.0985 6.04696 4.55918 6.60877C5.01987 7.17058 5.65982 7.55679 6.37158 7.70255C5.96383 7.82054 5.5368 7.85687 5.11498 7.80947C4.69316 7.76206 4.28485 7.63185 3.91346 7.42629C3.54207 7.22074 3.21491 6.94389 2.95075 6.61163C2.68659 6.27936 2.49062 5.89822 2.37408 5.49005C2.14262 4.66959 2.24543 3.79085 2.66003 3.04597C3.07464 2.30109 3.7673 1.75067 4.58658 1.51505C5.18658 1.34255 5.74158 1.3388 6.34533 1.50755H6.34158Z" fill="white"/>
<path fill-rule="evenodd" clip-rule="evenodd" d="M5.8541 4.12492L6.03785 4.68742L5.55035 4.34242L5.07035 4.69492L5.2466 4.12492L4.7666 3.77617L5.36285 3.76867L5.55035 3.20617L5.73785 3.76867H6.33035L5.8541 4.12492ZM6.51035 6.07492L6.69785 6.64117L6.21035 6.29617L5.7266 6.64492L5.9066 6.07867L5.4266 5.72617L6.02285 5.72242L6.2066 5.15617L6.3941 5.71867H6.9941L6.51035 6.07492ZM8.7041 6.05992L8.88785 6.62992L8.40035 6.28117L7.92035 6.62992L8.0966 6.06367L7.6166 5.71492L8.21285 5.70742L8.40035 5.14492L8.58785 5.70742H9.18035L8.7041 6.05992ZM9.3566 4.12492L9.54035 4.69117L9.05285 4.34617L8.57285 4.69492L8.75285 4.12867L8.2691 3.77617L8.8691 3.77242L9.0491 3.20617L9.2366 3.76867H9.8366L9.3566 4.12492ZM7.62035 2.83867L7.80785 3.40867L7.32035 3.05992L6.8366 3.41242L7.0166 2.84242L6.5366 2.48992L7.1291 2.48617L7.3166 1.91992L7.5041 2.48242H8.1041L7.62035 2.83867Z" fill="white"/>
</svg>

<svg width="24" height="18" fill="none" xmlns="http://www.w3.org/2000/svg"><path d="M.5.5h23v17H.5V.5z" fill="#fff" stroke="#F5F2E9"/><path fill-rule="evenodd" clip-rule="evenodd" d="M1 1h22v9H1V1z" fill="#DF0000"/><path fill-rule="evenodd" clip-rule="evenodd" d="M6.342 1.508a3.165 3.165 0 00.03 6.195A3.225 3.225 0 012.374 5.49a3.225 3.225 0 012.213-3.975 3.085 3.085 0 011.758-.007h-.003z" fill="#fff"/><path fill-rule="evenodd" clip-rule="evenodd" d="M5.854 4.125l.184.562-.488-.345-.48.353.177-.57-.48-.349.596-.007.187-.563.188.563h.592l-.476.356zm.656 1.95l.188.566-.488-.345-.483.349.18-.566-.48-.353.596-.004.184-.566.187.563h.6l-.484.356zm2.194-.015l.184.57-.488-.35-.48.349.177-.566-.48-.35.596-.007.187-.562.188.562h.592l-.476.353zm.653-1.935l.183.566-.487-.345-.48.349.18-.566-.484-.353.6-.004.18-.566.188.563h.6l-.48.356zM7.62 2.839l.188.57-.488-.35-.483.353.18-.57-.48-.352.592-.004.188-.566.187.562h.6l-.484.357z" fill="#fff"/></svg>
